assets/images/tools/slack.svg

<svg height="41" viewBox="0 0 158 41" width="158" xmlns="http://www.w3.org/2000/svg"><g fill="none" transform="translate(0 .461836)"><g fill="#000" transform="translate(50.07874 .629921)"><path d="m.15748032 30.7086614 1.9527559-4.5354331c2.11023622 1.5748032 4.91338583 2.3937008 7.68503937 2.3937008 2.04724411 0 3.33858271-.7874015 3.33858271-1.9842519-.0314961-3.3385827-12.25196854-.7244095-12.34645672-9.1023622-.03149607-4.2519685 3.74803149-7.52755909 9.1023622-7.52755909 3.18110232 0 6.36220472.78740159 8.62992122 2.58267719l-1.8267716 4.6299212c-2.0787402-1.3228346-4.6614173-2.2677165-7.11811025-2.2677165-1.66929134 0-2.77165354.7874016-2.77165354 1.7952756.03149606 3.2755905 12.34645669 1.4803149 12.47244099 9.4803149 0 4.3464567-3.6850394 7.4015748-8.976378 7.4015748-3.87401575 0-7.43307087-.9133858-10.14173228-2.8661417m74.92913388-6.1732283c-.976378 1.7007874-2.8031496 2.8661417-4.9133859 2.8661417-3.1181102 0-5.6377952-2.519685-5.6377952-5.6377953 0-3.1181102 2.519685-5.6377952 5.6377952-5.6377952 2.1102363 0 3.9370079 1.1653543 4.9133859 2.8661417l5.3858267-2.992126c-2.015748-3.5905512-5.8897637-6.04724409-10.2992126-6.04724409-6.519685 0-11.8110236 5.29133859-11.8110236 11.81102359 0 6.5196851 5.2913386 11.8110236 11.8110236 11.8110236 4.4409449 0 8.2834646-2.4251968 10.2992126-6.047244zm-53.1023622-24.37795278h6.7401574v32.97637798h-6.7401574zm61.1338582 0v32.97637798h6.7401575v-9.8897638l8 9.8897638h8.6299213l-10.1732284-11.7480315 9.4173224-10.9606299h-8.251968l-7.6220473 9.1023622v-19.37007878z"/><path d="m48.7559055 24.5984252c-.9763779 1.6062992-2.992126 2.8031496-5.2598425 2.8031496-3.1181102 0-5.6377953-2.519685-5.6377953-5.6377953 0-3.1181102 2.5196851-5.6377952 5.6377953-5.6377952 2.2677165 0 4.2834646 1.2598425 5.2598425 2.8976377zm0-14.1732283v2.6771653c-1.1023622-1.8582677-3.8425197-3.14960629-6.7086614-3.14960629-5.9212598 0-10.5826772 5.22834649-10.5826772 11.77952759s4.6614174 11.8425196 10.5826772 11.8425196c2.8661417 0 5.6062992-1.2913385 6.7086614-3.1496062v2.6771653h6.7401575v-22.6771653z"/></g><path d="m8.56692913 25.1968504c0 2.2992126-1.85826771 4.1574803-4.15748031 4.1574803s-4.15748032-1.8582677-4.15748032-4.1574803 1.85826772-4.1574803 4.15748032-4.1574803h4.15748031zm2.07874017 0c0-2.2992126 1.8582677-4.1574803 4.1574803-4.1574803s4.1574803 1.8582677 4.1574803 4.1574803v10.3937008c0 2.2992126-1.8582677 4.1574803-4.1574803 4.1574803s-4.1574803-1.8582677-4.1574803-4.1574803z" fill="#e01e5a"/><path d="m14.8031496 8.50393701c-2.2992126 0-4.1574803-1.85826772-4.1574803-4.15748032s1.8582677-4.15748031 4.1574803-4.15748031 4.1574803 1.85826771 4.1574803 4.15748031v4.15748032zm0 2.11023619c2.2992126 0 4.1574803 1.8582677 4.1574803 4.1574803s-1.8582677 4.1574804-4.1574803 4.1574804h-10.42519684c-2.2992126 0-4.15748032-1.8582678-4.15748032-4.1574804s1.85826772-4.1574803 4.15748032-4.1574803z" fill="#36c5f0"/><path d="m31.4645669 14.7716535c0-2.2992126 1.8582677-4.1574803 4.1574803-4.1574803s4.1574804 1.8582677 4.1574804 4.1574803-1.8582678 4.1574804-4.1574804 4.1574804h-4.1574803zm-2.0787401 0c0 2.2992126-1.8582677 4.1574804-4.1574803 4.1574804s-4.1574804-1.8582678-4.1574804-4.1574804v-10.42519681c0-2.2992126 1.8582678-4.15748031 4.1574804-4.15748031s4.1574803 1.85826771 4.1574803 4.15748031z" fill="#2eb67d"/><path d="m25.2283465 31.4330709c2.2992126 0 4.1574803 1.8582677 4.1574803 4.1574803s-1.8582677 4.1574803-4.1574803 4.1574803-4.1574804-1.8582677-4.1574804-4.1574803v-4.1574803zm0-2.0787402c-2.2992126 0-4.1574804-1.8582677-4.1574804-4.1574803s1.8582678-4.1574803 4.1574804-4.1574803h10.4251968c2.2992126 0 4.1574803 1.8582677 4.1574803 4.1574803s-1.8582677 4.1574803-4.1574803 4.1574803z" fill="#ecb22e"/></g></svg>

<?xml version="1.0" encoding="UTF-8"?>
<svg width="158px" height="41px" viewBox="0 0 158 41" version="1.1" xmlns="http://www.w3.org/2000/svg" xmlns:xlink="http://www.w3.org/1999/xlink">
    <title>logo_slack</title>
    <g id="Home" stroke="none" stroke-width="1" fill="none" fill-rule="evenodd">
        <g id="methodologie" transform="translate(-1040.000000, -7712.000000)" fill-rule="nonzero">
            <g id="logo_slack" transform="translate(1040.000000, 7712.461836)">
                <g id="Group" transform="translate(50.078740, 0.629921)" fill="#000000">
                    <path d="M0.157480315,30.7086614 L2.11023622,26.1732283 C4.22047244,27.7480315 7.02362205,28.5669291 9.79527559,28.5669291 C11.8425197,28.5669291 13.1338583,27.7795276 13.1338583,26.5826772 C13.1023622,23.2440945 0.881889764,25.8582677 0.787401575,17.480315 C0.755905512,13.2283465 4.53543307,9.95275591 9.88976378,9.95275591 C13.0708661,9.95275591 16.2519685,10.7401575 18.519685,12.5354331 L16.6929134,17.1653543 C14.6141732,15.8425197 12.0314961,14.8976378 9.57480315,14.8976378 C7.90551181,14.8976378 6.80314961,15.6850394 6.80314961,16.6929134 C6.83464567,19.9685039 19.1496063,18.1732283 19.2755906,26.1732283 C19.2755906,30.519685 15.5905512,33.5748031 10.2992126,33.5748031 C6.42519685,33.5748031 2.86614173,32.6614173 0.157480315,30.7086614 M75.0866142,24.5354331 C74.1102362,26.2362205 72.2834646,27.4015748 70.1732283,27.4015748 C67.0551181,27.4015748 64.5354331,24.8818898 64.5354331,21.7637795 C64.5354331,18.6456693 67.0551181,16.1259843 70.1732283,16.1259843 C72.2834646,16.1259843 74.1102362,17.2913386 75.0866142,18.992126 L80.4724409,16 C78.4566929,12.4094488 74.5826772,9.95275591 70.1732283,9.95275591 C63.6535433,9.95275591 58.3622047,15.2440945 58.3622047,21.7637795 C58.3622047,28.2834646 63.6535433,33.5748031 70.1732283,33.5748031 C74.6141732,33.5748031 78.4566929,31.1496063 80.4724409,27.5275591 L75.0866142,24.5354331 L75.0866142,24.5354331 Z M21.984252,0.157480315 L28.7244094,0.157480315 L28.7244094,33.1338583 L21.984252,33.1338583 L21.984252,0.157480315 Z M83.1181102,0.157480315 L83.1181102,33.1338583 L89.8582677,33.1338583 L89.8582677,23.2440945 L97.8582677,33.1338583 L106.488189,33.1338583 L96.3149606,21.3858268 L105.732283,10.4251969 L97.480315,10.4251969 L89.8582677,19.5275591 L89.8582677,0.157480315 L83.1181102,0.157480315 Z" id="Shape"></path>
                    <path d="M48.7559055,24.5984252 C47.7795276,26.2047244 45.7637795,27.4015748 43.496063,27.4015748 C40.3779528,27.4015748 37.8582677,24.8818898 37.8582677,21.7637795 C37.8582677,18.6456693 40.3779528,16.1259843 43.496063,16.1259843 C45.7637795,16.1259843 47.7795276,17.3858268 48.7559055,19.023622 L48.7559055,24.5984252 Z M48.7559055,10.4251969 L48.7559055,13.1023622 C47.6535433,11.2440945 44.9133858,9.95275591 42.0472441,9.95275591 C36.1259843,9.95275591 31.4645669,15.1811024 31.4645669,21.7322835 C31.4645669,28.2834646 36.1259843,33.5748031 42.0472441,33.5748031 C44.9133858,33.5748031 47.6535433,32.2834646 48.7559055,30.4251969 L48.7559055,33.1023622 L55.496063,33.1023622 L55.496063,10.4251969 L48.7559055,10.4251969 Z" id="Shape"></path>
                </g>
                <path d="M8.56692913,25.1968504 C8.56692913,27.496063 6.70866142,29.3543307 4.40944882,29.3543307 C2.11023622,29.3543307 0.251968504,27.496063 0.251968504,25.1968504 C0.251968504,22.8976378 2.11023622,21.0393701 4.40944882,21.0393701 L8.56692913,21.0393701 L8.56692913,25.1968504 Z M10.6456693,25.1968504 C10.6456693,22.8976378 12.503937,21.0393701 14.8031496,21.0393701 C17.1023622,21.0393701 18.9606299,22.8976378 18.9606299,25.1968504 L18.9606299,35.5905512 C18.9606299,37.8897638 17.1023622,39.7480315 14.8031496,39.7480315 C12.503937,39.7480315 10.6456693,37.8897638 10.6456693,35.5905512 L10.6456693,25.1968504 Z" id="Shape" fill="#E01E5A"></path>
                <path d="M14.8031496,8.50393701 C12.503937,8.50393701 10.6456693,6.64566929 10.6456693,4.34645669 C10.6456693,2.04724409 12.503937,0.188976378 14.8031496,0.188976378 C17.1023622,0.188976378 18.9606299,2.04724409 18.9606299,4.34645669 L18.9606299,8.50393701 L14.8031496,8.50393701 Z M14.8031496,10.6141732 C17.1023622,10.6141732 18.9606299,12.4724409 18.9606299,14.7716535 C18.9606299,17.0708661 17.1023622,18.9291339 14.8031496,18.9291339 L4.37795276,18.9291339 C2.07874016,18.9291339 0.220472441,17.0708661 0.220472441,14.7716535 C0.220472441,12.4724409 2.07874016,10.6141732 4.37795276,10.6141732 L14.8031496,10.6141732 Z" id="Shape" fill="#36C5F0"></path>
                <path d="M31.4645669,14.7716535 C31.4645669,12.4724409 33.3228346,10.6141732 35.6220472,10.6141732 C37.9212598,10.6141732 39.7795276,12.4724409 39.7795276,14.7716535 C39.7795276,17.0708661 37.9212598,18.9291339 35.6220472,18.9291339 L31.4645669,18.9291339 L31.4645669,14.7716535 Z M29.3858268,14.7716535 C29.3858268,17.0708661 27.5275591,18.9291339 25.2283465,18.9291339 C22.9291339,18.9291339 21.0708661,17.0708661 21.0708661,14.7716535 L21.0708661,4.34645669 C21.0708661,2.04724409 22.9291339,0.188976378 25.2283465,0.188976378 C27.5275591,0.188976378 29.3858268,2.04724409 29.3858268,4.34645669 L29.3858268,14.7716535 L29.3858268,14.7716535 Z" id="Shape" fill="#2EB67D"></path>
                <path d="M25.2283465,31.4330709 C27.5275591,31.4330709 29.3858268,33.2913386 29.3858268,35.5905512 C29.3858268,37.8897638 27.5275591,39.7480315 25.2283465,39.7480315 C22.9291339,39.7480315 21.0708661,37.8897638 21.0708661,35.5905512 L21.0708661,31.4330709 L25.2283465,31.4330709 Z M25.2283465,29.3543307 C22.9291339,29.3543307 21.0708661,27.496063 21.0708661,25.1968504 C21.0708661,22.8976378 22.9291339,21.0393701 25.2283465,21.0393701 L35.6535433,21.0393701 C37.9527559,21.0393701 39.8110236,22.8976378 39.8110236,25.1968504 C39.8110236,27.496063 37.9527559,29.3543307 35.6535433,29.3543307 L25.2283465,29.3543307 Z" id="Shape" fill="#ECB22E"></path>
            </g>
        </g>
    </g>
</svg>
